!!!SOCIAL_FUNCTION:	unclassified songs
!!!PDT:	1909
!!!OTL: No_193_Friendly_Song_(b).krn
!!!REG: Great_Lakes
!!!LANG: Non-Tone
!!!LING_GROUP: Algonquin
**kern
*staff1
=1-
*clefF4
*k[f#]
*M2/4
16d\LL
16d\J
8d\J
8.B\L
16B\Jk
=2
2d\
=3||
*M3/4
16B\LK
8.d\J
8.B\L
16A\Jk
8.G\L
16G\Jk
=4||
*M2/4
4B\
4B\
=5
4A\
Bq/
8.A\L
16A\Jk
=6
8.G\L
16G\Jk
[4G\
=7
2G\]
=8
4G\
4E\
=9||
*M3/4
2.G\
=10||
*M2/4
12B\L
12B\
12B\J
8.G\L
16G\Jk
=11
16B\LK
[8.G\J
4G\]
=12
8.E\L
16G\Jk
8E\L
8E\J
=13
8.D\L
16D\Jk
[4D\
=14
4D\]
4BB/
=15
8BB/L
8BB/J
4GG/
=16
4BB/
4BB/
=17
8.AA/L
16BB/Jk
8AA/L
8AA/J
=18
4GG/
[4GG/
=19
4GG/]
4GG/
==
*-
